X: 151
T: Brennan on the Moor
M:4/4
R:reel
L:1/8
Z:added by Alf warnock alf0@rogers.com - www.alfwarnock.info/alfs
K:G
d|"G"B3/2B/2BB BddB|"D7"A3/2A/2GF "G"G3d|g3/2g/2ba gd2d|"C"egge "G"d3d|
g3/2g/2ba gd2d/2d/2|"C"egge "G"d3d|"C"ee/2e/2ed efg3/2e/2|"G"ddde "Em"B2BA|
"G"AGG3/2G/2 G4| B/2d3/2d3/2B/2 d2ef|"C"g3/2g/2gf "G"ed2G|"D7"A/2G3/2G3/2G/2 "G"G4||

